%
(Header)
(Generated by gcodetools from Inkscape.)
(Using default header. To add your own header create file "header" in the output dir.)
M3
(Header end.)
G21 (All units in mm)

(Start cutting path id: path1468)
(Change tool to Tangent knife)

G00 Z5.000000
G00 X7.725183 Y5.808862

G01 Z-1.000000 F60.0(Penetrate)
G01 X7.877521 Y-4.935517 Z-1.000000 F60.000000
G01 X-4.647989 Y-4.845116 Z-1.000000
G00 Z5.000000

(End cutting path id: path1468)


(Start cutting path id: path1466)
(Change tool to Tangent knife)

G00 Z5.000000
G00 X-6.045201 Y6.122807

G01 Z-1.000000 F60.0(Penetrate)
G01 X7.725183 Y5.808862 Z-1.000000 F60.000000
G00 Z5.000000

(End cutting path id: path1466)


(Footer)
M5
G00 X0.0000 Y0.0000
M2
(Using default footer. To add your own footer create file "footer" in the output dir.)
(end)
%
exit